;START_OF_HEADER
;HEADER_VERSION:0.1
;FLAVOR:Griffin
;GENERATOR.NAME:Cura_SteamEngine
;GENERATOR.VERSION:4.9.1
;GENERATOR.BUILD_DATE:2021-05-10
;TARGET_MACHINE.NAME:Ultimaker S5
;EXTRUDER_TRAIN.0.INITIAL_TEMPERATURE:200
;EXTRUDER_TRAIN.0.MATERIAL.VOLUME_USED:3252
;EXTRUDER_TRAIN.0.MATERIAL.GUID:506c9f0d-e3aa-4bd4-b2d2-23e2425b1aa9
;EXTRUDER_TRAIN.0.NOZZLE.DIAMETER:0.4
;EXTRUDER_TRAIN.0.NOZZLE.NAME:AA 0.4
;BUILD_PLATE.TYPE:glass
;BUILD_PLATE.INITIAL_TEMPERATURE:60
;BUILD_VOLUME.TEMPERATURE:28
;PRINT.TIME:4491
;PRINT.GROUPS:1
;PRINT.SIZE.MIN.X:10.989
;PRINT.SIZE.MIN.Y:176.551
;PRINT.SIZE.MIN.Z:0.2
;PRINT.SIZE.MAX.X:53.249
;PRINT.SIZE.MAX.Y:214.411
;PRINT.SIZE.MAX.Z:9.08
;END_OF_HEADER
;Generated with Cura_SteamEngine 4.9.1
T0
M82 ;absolute extrusion mode

G92 E0
M109 S200
G280 S1
G0 Z20.001
G1 F1500 E-6.5
;LAYER_COUNT:149
;LAYER:0
M107
M204 S625
M205 X10 Y10
G1 F600 Z2.2
G0 F1800 X53.209 Y208.224 Z2.2
M204 S500
M205 X5 Y5
;TYPE:SKIRT
G1 F600 Z0.2
G1 F1500 E0
G1 F600 X53.09 Y208.959 E0.0098
G1 X52.892 Y209.677 E0.01961
G1 X52.619 Y210.369 E0.02941
G1 X52.273 Y211.028 E0.03921
G1 X51.858 Y211.646 E0.04901
G1 X51.379 Y212.216 E0.05881
G1 X50.842 Y212.731 E0.06861
G1 X50.253 Y213.186 E0.07841
G1 X49.619 Y213.575 E0.0882
G1 X48.946 Y213.894 E0.09801
G1 X48.243 Y214.139 E0.10781
G1 X47.518 Y214.307 E0.11761
G1 X46.779 Y214.396 E0.12741
G1 X46.319 Y214.411 E0.13347
G1 X17.919 Y214.411 E0.50743
G1 X17.176 Y214.371 E0.51723
G1 X16.441 Y214.252 E0.52703
G1 X15.723 Y214.054 E0.53684
G1 X15.031 Y213.781 E0.54663
G1 X14.372 Y213.435 E0.55643
G1 X13.754 Y213.02 E0.56623
G1 X13.184 Y212.541 E0.57604
G1 X12.669 Y212.004 E0.58584
G1 X12.214 Y211.415 E0.59564
G1 X11.825 Y210.781 E0.60543
G1 X11.506 Y210.108 E0.61524
G1 X11.261 Y209.405 E0.62504
G1 X11.093 Y208.68 E0.63484
G1 X11.004 Y207.941 E0.64464
G1 X10.989 Y207.481 E0.6507
G1 X10.989 Y183.481 E0.96672
G1 X11.029 Y182.738 E0.97651
G1 X11.148 Y182.003 E0.98632
G1 X11.346 Y181.285 E0.99613
G1 X11.619 Y180.593 E1.00592
G1 X11.965 Y179.934 E1.01572
G1 X12.38 Y179.316 E1.02552
G1 X12.859 Y178.746 E1.03533
G1 X13.396 Y178.231 E1.04512
G1 X13.985 Y177.776 E1.05492
G1 X14.619 Y177.387 E1.06472
G1 X15.292 Y177.068 E1.07453
G1 X15.995 Y176.823 E1.08433
G1 X16.72 Y176.655 E1.09413
G1 X17.459 Y176.566 E1.10393
G1 X17.919 Y176.551 E1.10999
G1 X46.319 Y176.551 E1.48394
G1 X47.062 Y176.591 E1.49374
G1 X47.797 Y176.71 E1.50354
G1 X48.515 Y176.908 E1.51335
G1 X49.207 Y177.181 E1.52315
G1 X49.866 Y177.527 E1.53295
G1 X50.484 Y177.942 E1.54275
G1 X51.054 Y178.421 E1.55255
G1 X51.569 Y178.958 E1.56235
G1 X52.024 Y179.547 E1.57215
G1 X52.413 Y180.181 E1.58194
G1 X52.732 Y180.854 E1.59175
G1 X52.977 Y181.557 E1.60155
G1 X53.145 Y182.282 E1.61135
G1 X53.234 Y183.021 E1.62115
G1 X53.249 Y183.481 E1.62721
G1 X53.249 Y207.481 E1.94323
G1 X53.209 Y208.224 E1.95303
M204 S625
M205 X10 Y10
G0 F1800 X52.789 Y208.201
M204 S500
M205 X5 Y5
G1 F600 X52.67 Y208.913 E1.96253
G1 X52.472 Y209.607 E1.97204
G1 X52.199 Y210.274 E1.98153
G1 X51.854 Y210.908 E1.99103
G1 X51.441 Y211.499 E2.00052
G1 X50.965 Y212.041 E2.01002
G1 X50.432 Y212.527 E2.01952
G1 X49.848 Y212.951 E2.02902
G1 X49.221 Y213.308 E2.03852
G1 X48.559 Y213.594 E2.04802
G1 X47.869 Y213.804 E2.05752
G1 X47.16 Y213.936 E2.06701
G1 X46.319 Y213.991 E2.07811
G1 X17.919 Y213.991 E2.45206
G1 X17.199 Y213.951 E2.46156
G1 X16.487 Y213.832 E2.47106
G1 X15.793 Y213.634 E2.48057
G1 X15.126 Y213.361 E2.49006
G1 X14.492 Y213.016 E2.49956
G1 X13.901 Y212.603 E2.50905
G1 X13.359 Y212.127 E2.51855
G1 X12.873 Y211.594 E2.52805
G1 X12.449 Y211.01 E2.53755
G1 X12.092 Y210.383 E2.54705
G1 X11.806 Y209.721 E2.55655
G1 X11.596 Y209.031 E2.56605
G1 X11.464 Y208.322 E2.57554
G1 X11.409 Y207.481 E2.58664
G1 X11.409 Y183.481 E2.90266
G1 X11.449 Y182.761 E2.91215
G1 X11.568 Y182.049 E2.92166
G1 X11.766 Y181.355 E2.93116
G1 X12.039 Y180.688 E2.94065
G1 X12.384 Y180.054 E2.95015
G1 X12.797 Y179.463 E2.95965
G1 X13.273 Y178.921 E2.96915
G1 X13.806 Y178.435 E2.97864
G1 X14.39 Y178.011 E2.98815
G1 X15.017 Y177.654 E2.99765
G1 X15.679 Y177.368 E3.00714
G1 X16.369 Y177.158 E3.01664
G1 X17.078 Y177.026 E3.02614
G1 X17.919 Y176.971 E3.03723
G1 X46.319 Y176.971 E3.41119
G1 X47.039 Y177.011 E3.42068
G1 X47.751 Y177.13 E3.43019
G1 X48.445 Y177.328 E3.43969
G1 X49.112 Y177.601 E3.44918
G1 X49.746 Y177.946 E3.45868
G1 X50.337 Y178.359 E3.46818
G1 X50.879 Y178.835 E3.47768
G1 X51.365 Y179.368 E3.48717
G1 X51.789 Y179.952 E3.49668
G1 X52.146 Y180.579 E3.50618
G1 X52.432 Y181.241 E3.51567
G1 X52.642 Y181.931 E3.52517
G1 X52.774 Y182.64 E3.53467
G1 X52.829 Y183.481 E3.54576
G1 X52.829 Y207.481 E3.86178
G1 X52.789 Y208.201 E3.87128
M204 S625
M205 X10 Y10
G0 F1800 X52.369 Y208.178
M204 S500
M205 X5 Y5
G1 F600 X52.25 Y208.865 E3.88046
G1 X52.052 Y209.534 E3.88964
G1 X51.78 Y210.177 E3.89884
G1 X51.436 Y210.783 E3.90801
G1 X51.024 Y211.347 E3.91721
G1 X50.551 Y211.86 E3.9264
G1 X50.023 Y212.315 E3.93557
G1 X49.446 Y212.707 E3.94476
G1 X48.827 Y213.03 E3.95395
G1 X48.176 Y213.281 E3.96314
G1 X47.5 Y213.455 E3.97233
G1 X46.809 Y213.551 E3.98152
G1 X46.319 Y213.571 E3.98797
G1 X17.919 Y213.571 E4.36193
G1 X17.222 Y213.531 E4.37112
G1 X16.535 Y213.412 E4.3803
G1 X15.866 Y213.214 E4.38949
G1 X15.223 Y212.942 E4.39868
G1 X14.617 Y212.598 E4.40786
G1 X14.053 Y212.186 E4.41705
G1 X13.54 Y211.713 E4.42624
G1 X13.085 Y211.185 E4.43542
G1 X12.693 Y210.608 E4.4446
G1 X12.37 Y209.989 E4.4538
G1 X12.119 Y209.338 E4.46298
G1 X11.945 Y208.662 E4.47218
G1 X11.849 Y207.971 E4.48136
G1 X11.829 Y207.481 E4.48782
G1 X11.829 Y183.481 E4.80384
G1 X11.869 Y182.784 E4.81303
G1 X11.988 Y182.097 E4.82221
G1 X12.186 Y181.428 E4.8314
G1 X12.458 Y180.785 E4.84059
G1 X12.802 Y180.179 E4.84977
G1 X13.214 Y179.615 E4.85896
G1 X13.687 Y179.102 E4.86815
G1 X14.215 Y178.647 E4.87733
G1 X14.792 Y178.255 E4.88651
G1 X15.411 Y177.932 E4.89571
G1 X16.062 Y177.681 E4.90489
G1 X16.738 Y177.507 E4.91408
G1 X17.429 Y177.411 E4.92327
G1 X17.919 Y177.391 E4.92973
G1 X46.319 Y177.391 E5.30368
G1 X47.016 Y177.431 E5.31287
G1 X47.703 Y177.55 E5.32206
G1 X48.372 Y177.748 E5.33124
G1 X49.015 Y178.02 E5.34044
G1 X49.621 Y178.364 E5.34961
G1 X50.185 Y178.776 E5.35881
G1 X50.698 Y179.249 E5.368
G1 X51.153 Y179.777 E5.37717
G1 X51.545 Y180.354 E5.38636
G1 X51.868 Y180.973 E5.39555
G1 X52.119 Y181.624 E5.40474
G1 X52.293 Y182.3 E5.41393
G1 X52.389 Y182.991 E5.42312
G1 X52.409 Y183.481 E5.42957
G1 X52.409 Y207.481 E5.74559
G1 X52.369 Y208.178 E5.75478
M204 S625
M205 X10 Y10
G0 F1800 X51.949 Y208.153
M204 S500
M205 X5 Y5
G1 F600 X51.83 Y208.816 E5.76365
G1 X51.633 Y209.459 E5.77251
G1 X51.361 Y210.075 E5.78137
G1 X51.018 Y210.654 E5.79024
G1 X50.609 Y211.189 E5.7991
G1 X50.139 Y211.671 E5.80797
G1 X49.615 Y212.094 E5.81684
G1 X49.045 Y212.453 E5.82571
G1 X48.437 Y212.741 E5.83456
G1 X47.799 Y212.955 E5.84342
G1 X47.139 Y213.091 E5.8523
G1 X46.319 Y213.151 E5.86312
G1 X17.919 Y213.151 E6.23708
G1 X17.247 Y213.111 E6.24594
G1 X16.584 Y212.992 E6.25481
G1 X15.941 Y212.795 E6.26367
G1 X15.325 Y212.523 E6.27253
G1 X14.746 Y212.18 E6.28139
G1 X14.211 Y211.771 E6.29026
G1 X13.729 Y211.301 E6.29913
G1 X13.306 Y210.777 E6.30799
G1 X12.947 Y210.207 E6.31686
G1 X12.659 Y209.599 E6.32572
G1 X12.445 Y208.961 E6.33458
G1 X12.309 Y208.301 E6.34346
G1 X12.249 Y207.481 E6.35428
G1 X12.249 Y183.481 E6.6703
G1 X12.289 Y182.809 E6.67916
G1 X12.408 Y182.146 E6.68803
G1 X12.605 Y181.503 E6.69689
G1 X12.877 Y180.887 E6.70575
G1 X13.22 Y180.308 E6.71462
G1 X13.629 Y179.773 E6.72348
G1 X14.099 Y179.291 E6.73235
G1 X14.623 Y178.868 E6.74121
G1 X15.193 Y178.509 E6.75008
G1 X15.801 Y178.221 E6.75894
G1 X16.439 Y178.007 E6.7678
G1 X17.099 Y177.871 E6.77668
G1 X17.919 Y177.811 E6.7875
G1 X46.319 Y177.811 E7.16146
G1 X46.991 Y177.851 E7.17032
G1 X47.654 Y177.97 E7.17919
G1 X48.297 Y178.167 E7.18805
G1 X48.913 Y178.439 E7.19691
G1 X49.492 Y178.782 E7.20577
G1 X50.027 Y179.191 E7.21464
G1 X50.509 Y179.661 E7.22351
G1 X50.932 Y180.185 E7.23237
G1 X51.291 Y180.755 E7.24124
G1 X51.579 Y181.363 E7.2501
G1 X51.793 Y182.001 E7.25896
G1 X51.929 Y182.661 E7.26784
G1 X51.989 Y183.481 E7.27866
G1 X51.989 Y207.481 E7.59468
G1 X51.949 Y208.153 E7.60354
M204 S625
M205 X10 Y10
G0 F1800 X51.529 Y208.128
M204 S500
M205 X5 Y5
G1 F600 X51.41 Y208.764 E7.61206
G1 X51.213 Y209.381 E7.62059
G1 X50.942 Y209.97 E7.62913
G1 X50.6 Y210.52 E7.63766
G1 X50.193 Y211.024 E7.64619
G1 X49.727 Y211.474 E7.65472
G1 X49.21 Y211.863 E7.66324
G1 X48.648 Y212.186 E7.67177
G1 X48.051 Y212.437 E7.6803
G1 X47.427 Y212.613 E7.68884
G1 X46.787 Y212.71 E7.69736
G1 X46.319 Y212.731 E7.70353
G1 X17.919 Y212.731 E8.07748
G1 X17.272 Y212.691 E8.08602
G1 X16.636 Y212.572 E8.09454
G1 X16.019 Y212.375 E8.10306
G1 X15.43 Y212.104 E8.1116
G1 X14.88 Y211.762 E8.12013
G1 X14.376 Y211.355 E8.12866
G1 X13.926 Y210.889 E8.13719
G1 X13.537 Y210.372 E8.14571
G1 X13.214 Y209.81 E8.15424
G1 X12.963 Y209.213 E8.16277
G1 X12.787 Y208.589 E8.17131
G1 X12.69 Y207.949 E8.17983
G1 X12.669 Y207.481 E8.186
G1 X12.669 Y183.481 E8.50202
G1 X12.709 Y182.834 E8.51055
G1 X12.828 Y182.198 E8.51907
G1 X13.025 Y181.581 E8.5276
G1 X13.296 Y180.992 E8.53614
G1 X13.638 Y180.442 E8.54467
G1 X14.045 Y179.938 E8.5532
G1 X14.511 Y179.488 E8.56173
G1 X15.028 Y179.099 E8.57025
G1 X15.59 Y178.776 E8.57878
G1 X16.187 Y178.525 E8.58731
G1 X16.811 Y178.349 E8.59585
G1 X17.451 Y178.252 E8.60437
G1 X17.919 Y178.231 E8.61054
G1 X46.319 Y178.231 E8.98449
G1 X46.966 Y178.271 E8.99303
G1 X47.602 Y178.39 E9.00155
G1 X48.219 Y178.587 E9.01008
G1 X48.808 Y178.858 E9.01861
G1 X49.358 Y179.2 E9.02714
G1 X49.862 Y179.607 E9.03567
G1 X50.312 Y180.073 E9.0442
G1 X50.701 Y180.59 E9.05272
G1 X51.024 Y181.152 E9.06125
G1 X51.275 Y181.749 E9.06978
G1 X51.451 Y182.373 E9.07832
G1 X51.548 Y183.013 E9.08684
G1 X51.569 Y183.481 E9.09301
G1 X51.569 Y207.481 E9.40903
G1 X51.529 Y208.128 E9.41756
M204 S625
M205 X10 Y10
G0 F1800 X51.109 Y208.101
M204 S500
M205 X5 Y5
G1 F600 X50.99 Y208.711 E9.42575
G1 X50.793 Y209.3 E9.43393
G1 X50.523 Y209.859 E9.4421
G1 X50.183 Y210.379 E9.45028
G1 X49.779 Y210.851 E9.45846
G1 X49.317 Y211.268 E9.46666
G1 X48.807 Y211.621 E9.47482
G1 X48.255 Y211.906 E9.483
G1 X47.67 Y212.118 E9.4912
G1 X47.064 Y212.253 E9.49937
G1 X46.319 Y212.311 E9.50921
G1 X17.919 Y212.311 E9.88316
G1 X17.299 Y212.271 E9.89135
G1 X16.689 Y212.152 E9.89953
G1 X16.1 Y211.955 E9.90771
G1 X15.541 Y211.685 E9.91588
G1 X15.021 Y211.345 E9.92406
G1 X14.549 Y210.941 E9.93224
G1 X14.132 Y210.479 E9.94044
G1 X13.779 Y209.969 E9.9486
G1 X13.494 Y209.417 E9.95678
G1 X13.282 Y208.832 E9.96498
G1 X13.147 Y208.226 E9.97315
G1 X13.089 Y207.481 E9.98299
G1 X13.089 Y183.481 E10.29901
G1 X13.129 Y182.861 E10.30719
G1 X13.248 Y182.251 E10.31537
G1 X13.445 Y181.662 E10.32355
G1 X13.715 Y181.103 E10.33173
G1 X14.055 Y180.583 E10.33991
G1 X14.459 Y180.111 E10.34809
G1 X14.921 Y179.694 E10.35628
G1 X15.431 Y179.341 E10.36445
G1 X15.983 Y179.056 E10.37263
G1 X16.568 Y178.844 E10.38082
G1 X17.174 Y178.709 E10.389
G1 X17.919 Y178.651 E10.39884
G1 X46.319 Y178.651 E10.77279
G1 X46.939 Y178.691 E10.78097
G1 X47.549 Y178.81 E10.78915
G1 X48.138 Y179.007 E10.79733
G1 X48.697 Y179.277 E10.80551
G1 X49.217 Y179.617 E10.81369
G1 X49.689 Y180.021 E10.82187
G1 X50.106 Y180.483 E10.83006
G1 X50.459 Y180.993 E10.83823
G1 X50.744 Y181.545 E10.84641
G1 X50.956 Y182.13 E10.8546
G1 X51.091 Y182.736 E10.86278
G1 X51.149 Y183.481 E10.87262
G1 X51.149 Y207.481 E11.18864
G1 X51.109 Y208.101 E11.19682
M204 S625
M205 X10 Y10
G0 F1800 X50.689 Y208.073
M204 S500
M205 X5 Y5
G1 F600 X50.57 Y208.655 E11.20464
G1 X50.374 Y209.215 E11.21245
G1 X50.104 Y209.744 E11.22027
G1 X49.766 Y210.232 E11.22809
G1 X49.365 Y210.67 E11.23591
G1 X48.909 Y211.05 E11.24372
G1 X48.406 Y211.366 E11.25154
G1 X47.866 Y211.611 E11.25935
G1 X47.297 Y211.781 E11.26717
G1 X46.711 Y211.874 E11.27498
G1 X46.319 Y211.891 E11.28015
G1 X17.919 Y211.891 E11.6541
G1 X17.327 Y211.851 E11.66192
G1 X16.745 Y211.732 E11.66974
G1 X16.185 Y211.536 E11.67755
G1 X15.656 Y211.266 E11.68537
G1 X15.168 Y210.928 E11.69319
G1 X14.73 Y210.527 E11.70101
G1 X14.35 Y210.071 E11.70882
G1 X14.034 Y209.568 E11.71665
G1 X13.789 Y209.028 E11.72445
G1 X13.619 Y208.459 E11.73227
G1 X13.526 Y207.873 E11.74009
G1 X13.509 Y207.481 E11.74525
G1 X13.509 Y183.481 E12.06127
G1 X13.549 Y182.889 E12.06908
G1 X13.668 Y182.307 E12.0769
G1 X13.864 Y181.747 E12.08472
G1 X14.134 Y181.218 E12.09254
G1 X14.472 Y180.73 E12.10035
G1 X14.873 Y180.292 E12.10817
G1 X15.329 Y179.912 E12.11599
G1 X15.832 Y179.596 E12.12381
G1 X16.372 Y179.351 E12.13162
G1 X16.941 Y179.181 E12.13944
G1 X17.527 Y179.088 E12.14725
G1 X17.919 Y179.071 E12.15242
G1 X46.319 Y179.071 E12.52637
G1 X46.911 Y179.111 E12.53418
G1 X47.493 Y179.23 E12.54201
G1 X48.053 Y179.426 E12.54982
G1 X48.582 Y179.696 E12.55764
G1 X49.07 Y180.034 E12.56545
G1 X49.508 Y180.435 E12.57327
G1 X49.888 Y180.891 E12.58109
G1 X50.204 Y181.394 E12.58891
G1 X50.449 Y181.934 E12.59672
G1 X50.619 Y182.503 E12.60454
G1 X50.712 Y183.089 E12.61235
G1 X50.729 Y183.481 E12.61752
G1 X50.729 Y207.481 E12.93354
G1 X50.689 Y208.073 E12.94135
M204 S625
M205 X10 Y10
G0 F1800 X50.269 Y208.044
M204 S500
M205 X5 Y5
G1 F600 X50.15 Y208.596 E12.94878
G1 X49.954 Y209.126 E12.95622
G1 X49.686 Y209.622 E12.96365
G1 X49.35 Y210.076 E12.97109
G1 X48.953 Y210.478 E12.97852
G1 X48.504 Y210.82 E12.98596
G1 X48.01 Y211.095 E12.9934
G1 X47.483 Y211.297 E13.00083
G1 X46.933 Y211.423 E13.00826
G1 X46.319 Y211.471 E13.01637
G1 X17.919 Y211.471 E13.39033
G1 X17.356 Y211.431 E13.39776
G1 X16.804 Y211.312 E13.40519
G1 X16.274 Y211.116 E13.41263
G1 X15.778 Y210.848 E13.42006
G1 X15.324 Y210.512 E13.42749
G1 X14.922 Y210.115 E13.43493
G1 X14.58 Y209.666 E13.44237
G1 X14.305 Y209.172 E13.44981
G1 X14.103 Y208.645 E13.45724
G1 X13.977 Y208.095 E13.46467
G1 X13.929 Y207.481 E13.47278
G1 X13.929 Y183.481 E13.7888
G1 X13.969 Y182.918 E13.79623
G1 X14.088 Y182.366 E13.80367
G1 X14.284 Y181.836 E13.81111
G1 X14.552 Y181.34 E13.81853
G1 X14.888 Y180.886 E13.82597
G1 X15.285 Y180.484 E13.83341
G1 X15.734 Y180.142 E13.84084
G1 X16.228 Y179.867 E13.84828
G1 X16.755 Y179.665 E13.85571
G1 X17.305 Y179.539 E13.86314
G1 X17.919 Y179.491 E13.87125
G1 X46.319 Y179.491 E14.24521
G1 X46.882 Y179.531 E14.25264
G1 X47.434 Y179.65 E14.26007
G1 X47.964 Y179.846 E14.26751
G1 X48.46 Y180.114 E14.27494
G1 X48.914 Y180.45 E14.28238
G1 X49.316 Y180.847 E14.28981
G1 X49.658 Y181.296 E14.29725
G1 X49.933 Y181.79 E14.30469
G1 X50.135 Y182.317 E14.31212
G1 X50.261 Y182.867 E14.31955
G1 X50.309 Y183.481 E14.32766
G1 X50.309 Y207.481 E14.64368
G1 X50.269 Y208.044 E14.65111
M204 S625
M205 X10 Y10
G0 F1800 X49.849 Y208.014
M204 S500
M205 X5 Y5
G1 F600 X49.73 Y208.534 E14.65814
G1 X49.535 Y209.031 E14.66517
G1 X49.268 Y209.494 E14.6722
G1 X48.934 Y209.911 E14.67924
G1 X48.543 Y210.274 E14.68626
G1 X48.101 Y210.574 E14.6933
G1 X47.62 Y210.806 E14.70033
G1 X47.109 Y210.962 E14.70736
G1 X46.319 Y211.051 E14.71783
G1 X17.919 Y211.051 E15.09179
G1 X17.386 Y211.011 E15.09882
G1 X16.866 Y210.892 E15.10585
G1 X16.369 Y210.697 E15.11288
G1 X15.906 Y210.43 E15.11992
G1 X15.489 Y210.096 E15.12695
G1 X15.126 Y209.705 E15.13398
G1 X14.826 Y209.263 E15.14101
G1 X14.594 Y208.782 E15.14804
G1 X14.438 Y208.271 E15.15508
G1 X14.349 Y207.481 E15.16554
G1 X14.349 Y183.481 E15.48156
G1 X14.389 Y182.948 E15.4886
G1 X14.508 Y182.428 E15.49562
G1 X14.703 Y181.931 E15.50265
G1 X14.97 Y181.468 E15.50969
G1 X15.304 Y181.051 E15.51673
G1 X15.695 Y180.688 E15.52375
G1 X16.137 Y180.388 E15.53078
